X: 90
T:Mason's Apron
M:C
L:1/8
C:Trad
R:Reel
K:A
|: efg |"A" a2 A2 (3AAA F | EFAB cABc |"Bm" d2 B2(3BBB A |"Bm" GABc "E7" defg | "A"a2 A2 (3AAA F | 
EFAB cABc |"D" dcde fgaf |"E7" edcB "A"A2 :||: ed |"A"c2ec fcec | Acec fedc |
"Bm" d2fd gdfd |"Bm" d2fd "E7"gfed |"A"c2ec fcec | Acec fedc | "D" dcde fgaf | "E7"edcB "A"A2 :|

%%newpage

